!!!OTL: No_58_Lady_Crane,_You_Stole_My_Corn.krn
!!!LING_GROUP: Keresan
!!!LANG: Tone
!!!REG: Southwest
!!!SOCIAL_FUNCTION: isleta
**kern
*staff1
=1-
*clefF4
*k[f#]
*M2/4
8.r
16D\
8.G\L
16F#\Jk
=2
4G\
4G\
=3
8.G\L
16G\Jk
12B\L
12A\
12B\J
=4
4G\
8G\
8r
=5
*M3/4
8B\L
8B\J
8G\L
8G\J
8D\
8r
=6
8B\L
8B\J
16G\LK
8.G\J
8D\
8r
=7
8B\L
8B\J
4G\
8D\
8r
=8
*M2/4
8B\L
8B\J
16G\LK
8.G\J
=9
8D\
8r
8G\L
16G\L
16F#\JJ
=10
4G\
4G\
=11
*M3/4
4G\
4G\
12D\L
12D\
12F#\J
=12
*M2/4
4G\
4G\
=13
4G\
4G\
=14
4G\
4r
==
*-
